app/assets/images/heroicons/micro/globe-asia-australia.svg

<svg width="16" height="16" viewBox="0 0 16 16" fill="none" xmlns="http://www.w3.org/2000/svg">
<path fill-rule="evenodd" clip-rule="evenodd" d="M1 8C1 4.13401 4.13401 1 8 1C11.866 1 15 4.13401 15 8C15 11.866 11.866 15 8 15C4.13401 15 1 11.866 1 8ZM8 13.5C6.42029 13.5 4.99613 12.834 3.99298 11.7675L4.27349 11.0662C4.38072 10.7981 4.7271 10.727 4.93126 10.9312C5.24537 11.2453 5.75463 11.2453 6.06874 10.9312L6.08114 10.9188C6.33128 10.6686 6.39329 10.2865 6.23509 9.9701L6.17965 9.85923C6.07486 9.64965 6.13072 9.39535 6.31369 9.24897L8.14017 7.78778C8.35005 7.61988 8.41412 7.32817 8.29392 7.08776C8.13879 6.77751 8.29442 6.40178 8.6235 6.29209L8.65191 6.28262C9.18579 6.10466 9.60474 5.68572 9.7827 5.15183L9.8541 4.93762C9.94352 4.66937 9.8737 4.37362 9.67376 4.17368L8.29289 2.79281C8.2076 2.70752 8.1393 2.6084 8.09019 2.50072C11.0862 2.54889 13.5 4.99255 13.5 8C13.5 8.90022 13.2837 9.74993 12.9003 10.5H12.4142C12.149 10.5 11.8946 10.3946 11.7071 10.2071L11.3536 9.85355C11.1272 9.62718 10.8201 9.5 10.5 9.5C10.1799 9.5 9.87282 9.62718 9.64645 9.85355L9.11475 10.3853C9.03875 10.4613 8.95099 10.5245 8.85485 10.5726L8.51246 10.7438C8.19839 10.9008 8 11.2218 8 11.5729V11.75C8 12.1642 8.33579 12.5 8.75 12.5C9.16421 12.5 9.5 12.8358 9.5 13.25C9.5 13.2643 9.5004 13.2785 9.50119 13.2926C9.02401 13.4277 8.52045 13.5 8 13.5Z" fill="black"/>
</svg>

<svg xmlns="http://www.w3.org/2000/svg" viewBox="0 0 16 16" fill="currentColor" aria-hidden="true" data-slot="icon">
  <path fill-rule="evenodd" d="M1 8a7 7 0 1 1 14 0A7 7 0 0 1 1 8Zm7 5.5a5.485 5.485 0 0 1-4.007-1.732l.28-.702a.402.402 0 0 1 .658-.135.804.804 0 0 0 1.138 0l.012-.012a.822.822 0 0 0 .154-.949l-.055-.11a.497.497 0 0 1 .134-.611L8.14 7.788a.57.57 0 0 0 .154-.7.57.57 0 0 1 .33-.796l.028-.01a1.788 1.788 0 0 0 1.13-1.13l.072-.214a.747.747 0 0 0-.18-.764L8.293 2.793A1 1 0 0 1 8.09 2.5 5.5 5.5 0 0 1 12.9 10.5h-.486a1 1 0 0 1-.707-.293l-.353-.353a1.207 1.207 0 0 0-1.708 0l-.531.531a1 1 0 0 1-.26.188l-.343.17a.927.927 0 0 0-.512.83v.177c0 .414.336.75.75.75a.75.75 0 0 1 .751.793c-.477.135-.98.207-1.501.207Z" clip-rule="evenodd"/>
</svg>
